build/img/icons/map.svg

<svg width="42" height="42" viewBox="0 0 42 42" fill="none" xmlns="http://www.w3.org/2000/svg">
<g clip-path="url(#clip0_155_1656)">
<path d="M40.6876 18.3752C39.9657 18.3752 39.3751 18.9658 39.3751 19.6877V34.5518L28.8751 38.7518V24.9377C28.8751 24.2158 28.2845 23.6252 27.5626 23.6252C26.8407 23.6252 26.2501 24.2158 26.2501 24.9377V38.7518L15.7501 34.5518V13.7486L21.8286 16.185C22.4931 16.4557 23.2642 16.1275 23.5349 15.4549C23.8056 14.7822 23.4774 14.0193 22.8048 13.7486L14.9462 10.6068L14.9216 10.5986C14.6099 10.4756 14.2571 10.4756 13.9454 10.5986L13.9208 10.6068L0.828613 15.8486C0.336426 16.0455 0.00830078 16.5295 0.00830078 17.0627V40.6877C0.00830078 41.1225 0.229785 41.5326 0.58252 41.7705C0.804004 41.9182 1.0583 42.0002 1.3208 42.0002C1.48486 42.0002 1.64893 41.9674 1.81299 41.9018L14.4458 36.8486L27.0622 41.8936L27.0868 41.9018C27.3985 42.0248 27.7513 42.0248 28.063 41.9018L28.0876 41.8936L41.1798 36.66C41.672 36.4549 42.0001 35.9791 42.0001 35.4377V19.6877C42.0001 18.9658 41.4095 18.3752 40.6876 18.3752ZM13.1251 34.5518L2.6251 38.7518V17.9486L13.1251 13.7486V34.5518Z" fill="#49B462"/>
<path d="M32.8125 5.25C30.6387 5.25 28.875 7.01367 28.875 9.1875C28.875 11.3613 30.6387 13.125 32.8125 13.125C34.9863 13.125 36.75 11.3613 36.75 9.1875C36.75 7.01367 34.9863 5.25 32.8125 5.25ZM32.8125 10.5C32.0906 10.5 31.5 9.90938 31.5 9.1875C31.5 8.46563 32.0906 7.875 32.8125 7.875C33.5344 7.875 34.125 8.46563 34.125 9.1875C34.125 9.90938 33.5344 10.5 32.8125 10.5Z" fill="#F8DB3D"/>
<path d="M32.8125 0C27.743 0 23.625 4.11797 23.625 9.1875C23.625 13.9043 30.9996 22.2551 31.8363 23.1902C32.0824 23.4691 32.4434 23.625 32.8125 23.625C33.1816 23.625 33.5426 23.4609 33.7887 23.1902C34.6336 22.2551 42 13.9043 42 9.1875C42 4.11797 37.882 0 32.8125 0ZM32.8125 20.3109C29.9496 16.9148 26.25 11.6895 26.25 9.1875C26.25 5.56992 29.1949 2.625 32.8125 2.625C36.4301 2.625 39.375 5.56992 39.375 9.1875C39.375 11.6895 35.6836 16.9066 32.8125 20.3109Z" fill="#F8DB3D"/>
</g>
<defs>
<clipPath id="clip0_155_1656">
<rect width="42" height="42" fill="white"/>
</clipPath>
</defs>
</svg>

<svg width="42" height="42" fill="none" xmlns="http://www.w3.org/2000/svg"><g clip-path="url(#clip0_155_1656)"><path d="M40.688 18.375c-.722 0-1.313.59-1.313 1.313v14.864l-10.5 4.2V24.938c0-.722-.59-1.313-1.312-1.313-.722 0-1.313.59-1.313 1.313v13.814l-10.5-4.2V13.749l6.079 2.436a1.312 1.312 0 10.976-2.436l-7.859-3.142-.024-.008a1.337 1.337 0 00-.977 0l-.024.008L.829 15.849a1.31 1.31 0 00-.82 1.214v23.625A1.316 1.316 0 001.32 42c.164 0 .328-.033.492-.098l12.633-5.053 12.616 5.045.025.008c.311.123.664.123.976 0l.025-.008L41.18 36.66c.492-.205.82-.68.82-1.222v-15.75c0-.722-.59-1.313-1.312-1.313zM13.125 34.552l-10.5 4.2V17.949l10.5-4.2v20.803z" fill="#49B462"/><path d="M32.813 5.25a3.939 3.939 0 000 7.875 3.939 3.939 0 000-7.875zm0 5.25c-.722 0-1.313-.59-1.313-1.313 0-.721.59-1.312 1.313-1.312.721 0 1.312.59 1.312 1.313 0 .721-.59 1.312-1.313 1.312z" fill="#F8DB3D"/><path d="M32.813 0c-5.07 0-9.188 4.118-9.188 9.188 0 4.716 7.375 13.067 8.211 14.002.246.28.607.435.977.435.369 0 .73-.164.976-.435C34.634 22.255 42 13.904 42 9.187 42 4.119 37.882 0 32.812 0zm0 20.31c-2.863-3.395-6.563-8.62-6.563-11.122a6.571 6.571 0 016.563-6.563 6.571 6.571 0 016.562 6.563c0 2.502-3.691 7.719-6.563 11.123z" fill="#F8DB3D"/></g><defs><clipPath id="clip0_155_1656"><path fill="#fff" d="M0 0h42v42H0z"/></clipPath></defs></svg>
